X:1
T:Come on Wee Man
C:Aidan O'Rourke
S:LAU - Lightweights and Gentlemen
N:Not sure about the composer but it sounds like it could be his
Z:robin.beech@mcgill.ca
R:reel
M:4/4
L:1/8
K:Bmin
B2AGA |: FBBA Bcde | effd edfd | effd f/e/def |gfed  cdBA |
FBBA Bcde | effd f/e/def | gfed cBAG | Fzz2z4 ::
gab/a/g c'bag | fBBA Bcdf | e_BB=B cdeg | f3f2bab|
gab/a/g c'bag | fBBA Bcdf | edcB AGFE | F4z4 :|
